X: 18585
T: I Ne'er Shall Wean Her
R: jig
M: 6/8
K: Dmajor
F2A AFE|FAA cdd|c2B BAB|def gfe|
def afb|afe d2e|fbf afe|1 d2B BAG:|2 d2B Bde||
|:f2a afe|faa afe|f2b bab|c'ba bBc|
def afb|afe d2e|fbf afe|1 d2B Bde:|2 d2B BAG||

